X: 20834
M: C
L: 1/8
K: C
|:\
EDCD EFGE | FDGE C2C2 :|\
{cd}e2dc {cd}e2dc | dcBc defd |
e2dc AcGc | edcB c2c2 |\
{cd}e2dc {cd}e2dc | dcBc defd |\
ecdB cABG | AFGE FEDE |]


